bernoullicharts/arctan_x_flajolet__bound.svg

<?xml version="1.0" encoding="utf-8" standalone="no"?>
<!DOCTYPE svg PUBLIC "-//W3C//DTD SVG 1.1//EN"
  "http://www.w3.org/Graphics/SVG/1.1/DTD/svg11.dtd">
<!-- Created with matplotlib (https://matplotlib.org/) -->
<svg height="345.6pt" version="1.1" viewBox="0 0 460.8 345.6" width="460.8pt" xmlns="http://www.w3.org/2000/svg" xmlns:xlink="http://www.w3.org/1999/xlink">
 <defs>
  <style type="text/css">
*{stroke-linecap:butt;stroke-linejoin:round;}
  </style>
 </defs>
 <g id="figure_1">
  <g id="patch_1">
   <path d="M 0 345.6 
L 460.8 345.6 
L 460.8 0 
L 0 0 
z
" style="fill:#ffffff;"/>
  </g>
  <g id="axes_1">
   <g id="patch_2">
    <path d="M 57.6 307.584 
L 414.72 307.584 
L 414.72 41.472 
L 57.6 41.472 
z
" style="fill:#ffffff;"/>
   </g>
   <g id="matplotlib.axis_1">
    <g id="xtick_1">
     <g id="line2d_1">
      <defs>
       <path d="M 0 0 
L 0 3.5 
" id="m8bec93085d" style="stroke:#000000;stroke-width:0.8;"/>
      </defs>
      <g>
       <use style="stroke:#000000;stroke-width:0.8;" x="73.800255" xlink:href="#m8bec93085d" y="307.584"/>
      </g>
     </g>
     <g id="text_1">
      <text style="font-family:DejaVu Sans;font-size:10px;font-style:normal;font-weight:normal;text-anchor:middle;" transform="rotate(-0, 73.800255, 322.182437)" x="73.800255" y="322.182437">0.0</text>
     </g>
    </g>
    <g id="xtick_2">
     <g id="line2d_2">
      <g>
       <use style="stroke:#000000;stroke-width:0.8;" x="138.744153" xlink:href="#m8bec93085d" y="307.584"/>
      </g>
     </g>
     <g id="text_2">
      <text style="font-family:DejaVu Sans;font-size:10px;font-style:normal;font-weight:normal;text-anchor:middle;" transform="rotate(-0, 138.744153, 322.182437)" x="138.744153" y="322.182437">0.2</text>
     </g>
    </g>
    <g id="xtick_3">
     <g id="line2d_3">
      <g>
       <use style="stroke:#000000;stroke-width:0.8;" x="203.688051" xlink:href="#m8bec93085d" y="307.584"/>
      </g>
     </g>
     <g id="text_3">
      <text style="font-family:DejaVu Sans;font-size:10px;font-style:normal;font-weight:normal;text-anchor:middle;" transform="rotate(-0, 203.688051, 322.182437)" x="203.688051" y="322.182437">0.4</text>
     </g>
    </g>
    <g id="xtick_4">
     <g id="line2d_4">
      <g>
       <use style="stroke:#000000;stroke-width:0.8;" x="268.631949" xlink:href="#m8bec93085d" y="307.584"/>
      </g>
     </g>
     <g id="text_4">
      <text style="font-family:DejaVu Sans;font-size:10px;font-style:normal;font-weight:normal;text-anchor:middle;" transform="rotate(-0, 268.631949, 322.182437)" x="268.631949" y="322.182437">0.6</text>
     </g>
    </g>
    <g id="xtick_5">
     <g id="line2d_5">
      <g>
       <use style="stroke:#000000;stroke-width:0.8;" x="333.575847" xlink:href="#m8bec93085d" y="307.584"/>
      </g>
     </g>
     <g id="text_5">
      <text style="font-family:DejaVu Sans;font-size:10px;font-style:normal;font-weight:normal;text-anchor:middle;" transform="rotate(-0, 333.575847, 322.182437)" x="333.575847" y="322.182437">0.8</text>
     </g>
    </g>
    <g id="xtick_6">
     <g id="line2d_6">
      <g>
       <use style="stroke:#000000;stroke-width:0.8;" x="398.519745" xlink:href="#m8bec93085d" y="307.584"/>
      </g>
     </g>
     <g id="text_6">
      <text style="font-family:DejaVu Sans;font-size:10px;font-style:normal;font-weight:normal;text-anchor:middle;" transform="rotate(-0, 398.519745, 322.182437)" x="398.519745" y="322.182437">1.0</text>
     </g>
    </g>
    <g id="text_7">
     <text style="font-family:DejaVu Sans;font-size:10px;font-style:normal;font-weight:normal;text-anchor:middle;" transform="rotate(-0, 236.16, 335.860562)" x="236.16" y="335.860562">Input Coin's Heads Probability (λ)</text>
    </g>
   </g>
   <g id="matplotlib.axis_2">
    <g id="ytick_1">
     <g id="line2d_7">
      <defs>
       <path d="M 0 0 
L -3.5 0 
" id="ma7a14e08a4" style="stroke:#000000;stroke-width:0.8;"/>
      </defs>
      <g>
       <use style="stroke:#000000;stroke-width:0.8;" x="57.6" xlink:href="#ma7a14e08a4" y="295.494814"/>
      </g>
     </g>
     <g id="text_8">
      <text style="font-family:DejaVu Sans;font-size:10px;font-style:normal;font-weight:normal;text-anchor:end;" transform="rotate(-0, 50.6, 299.294033)" x="50.6" y="299.294033">0</text>
     </g>
    </g>
    <g id="ytick_2">
     <g id="line2d_8">
      <g>
       <use style="stroke:#000000;stroke-width:0.8;" x="57.6" xlink:href="#ma7a14e08a4" y="249.553527"/>
      </g>
     </g>
     <g id="text_9">
      <text style="font-family:DejaVu Sans;font-size:10px;font-style:normal;font-weight:normal;text-anchor:end;" transform="rotate(-0, 50.6, 253.352746)" x="50.6" y="253.352746">1</text>
     </g>
    </g>
    <g id="ytick_3">
     <g id="line2d_9">
      <g>
       <use style="stroke:#000000;stroke-width:0.8;" x="57.6" xlink:href="#ma7a14e08a4" y="203.612241"/>
      </g>
     </g>
     <g id="text_10">
      <text style="font-family:DejaVu Sans;font-size:10px;font-style:normal;font-weight:normal;text-anchor:end;" transform="rotate(-0, 50.6, 207.41146)" x="50.6" y="207.41146">2</text>
     </g>
    </g>
    <g id="ytick_4">
     <g id="line2d_10">
      <g>
       <use style="stroke:#000000;stroke-width:0.8;" x="57.6" xlink:href="#ma7a14e08a4" y="157.670955"/>
      </g>
     </g>
     <g id="text_11">
      <text style="font-family:DejaVu Sans;font-size:10px;font-style:normal;font-weight:normal;text-anchor:end;" transform="rotate(-0, 50.6, 161.470174)" x="50.6" y="161.470174">3</text>
     </g>
    </g>
    <g id="ytick_5">
     <g id="line2d_11">
      <g>
       <use style="stroke:#000000;stroke-width:0.8;" x="57.6" xlink:href="#ma7a14e08a4" y="111.729668"/>
      </g>
     </g>
     <g id="text_12">
      <text style="font-family:DejaVu Sans;font-size:10px;font-style:normal;font-weight:normal;text-anchor:end;" transform="rotate(-0, 50.6, 115.528887)" x="50.6" y="115.528887">4</text>
     </g>
    </g>
    <g id="ytick_6">
     <g id="line2d_12">
      <g>
       <use style="stroke:#000000;stroke-width:0.8;" x="57.6" xlink:href="#ma7a14e08a4" y="65.788382"/>
      </g>
     </g>
     <g id="text_13">
      <text style="font-family:DejaVu Sans;font-size:10px;font-style:normal;font-weight:normal;text-anchor:end;" transform="rotate(-0, 50.6, 69.587601)" x="50.6" y="69.587601">5</text>
     </g>
    </g>
    <g id="text_14">
     <text style="font-family:DejaVu Sans;font-size:10px;font-style:normal;font-weight:normal;text-anchor:middle;" transform="rotate(-90, 38.157812, 174.528)" x="38.157812" y="174.528">Coin Flips Needed</text>
    </g>
   </g>
   <g id="line2d_13">
    <path clip-path="url(#pb16941ba27)" d="M 73.832727 249.553529 
L 77.112066 249.561508 
L 80.391405 249.585188 
L 83.670744 249.62463 
L 86.950083 249.679874 
L 90.229421 249.750936 
L 93.50876 249.83781 
L 96.788099 249.94047 
L 100.067438 250.058865 
L 103.346777 250.192924 
L 106.626116 250.342555 
L 109.905455 250.507645 
L 113.184793 250.688059 
L 116.464132 250.883645 
L 119.743471 251.094229 
L 123.02281 251.31962 
L 126.302149 251.559609 
L 129.581488 251.813971 
L 132.860826 252.082463 
L 136.140165 252.364827 
L 139.419504 252.660793 
L 142.698843 252.970074 
L 145.978182 253.292375 
L 149.257521 253.627386 
L 152.53686 253.974788 
L 155.816198 254.334252 
L 159.095537 254.705444 
L 162.374876 255.088017 
L 165.654215 255.481624 
L 168.933554 255.885908 
L 172.212893 256.300511 
L 175.492231 256.72507 
L 178.77157 257.159222 
L 182.050909 257.602602 
L 185.330248 258.054842 
L 188.609587 258.51558 
L 191.888926 258.984453 
L 195.168264 259.461099 
L 198.447603 259.945162 
L 201.726942 260.436289 
L 205.006281 260.934132 
L 208.28562 261.43835 
L 211.564959 261.948605 
L 214.844298 262.46457 
L 218.123636 262.985923 
L 221.402975 263.512352 
L 224.682314 264.043551 
L 227.961653 264.579225 
L 231.240992 265.11909 
L 234.520331 265.662869 
L 237.799669 266.210299 
L 241.079008 266.761124 
L 244.358347 267.315102 
L 247.637686 267.872002 
L 250.917025 268.431604 
L 254.196364 268.9937 
L 257.475702 269.558095 
L 260.755041 270.124606 
L 264.03438 270.693063 
L 267.313719 271.263307 
L 270.593058 271.835195 
L 273.872397 272.408594 
L 277.151736 272.983386 
L 280.431074 273.559465 
L 283.710413 274.136741 
L 286.989752 274.715134 
L 290.269091 275.29458 
L 293.54843 275.875029 
L 296.827769 276.456442 
L 300.107107 277.038798 
L 303.386446 277.622088 
L 306.665785 278.206316 
L 309.945124 278.791503 
L 313.224463 279.377683 
L 316.503802 279.964907 
L 319.78314 280.553238 
L 323.062479 281.142757 
L 326.341818 281.73356 
L 329.621157 282.32576 
L 332.900496 282.919483 
L 336.179835 283.514877 
L 339.459174 284.112103 
L 342.738512 284.711344 
L 346.017851 285.312799 
L 349.29719 285.916687 
L 352.576529 286.523247 
L 355.855868 287.132742 
L 359.135207 287.745452 
L 362.414545 288.361684 
L 365.693884 288.981769 
L 368.973223 289.606062 
L 372.252562 290.234949 
L 375.531901 290.86884 
L 378.81124 291.508181 
L 382.090579 292.153448 
L 385.369917 292.805154 
L 388.649256 293.463848 
L 391.928595 294.130122 
L 395.207934 294.804612 
L 398.487273 295.488 
" style="fill:none;stroke:#1f77b4;stroke-linecap:square;stroke-width:1.5;"/>
   </g>
   <g id="line2d_14">
    <path clip-path="url(#pb16941ba27)" d="M 73.832727 232.371486 
L 77.112066 233.93349 
L 80.391405 234.484786 
L 83.670744 232.647134 
L 86.950083 232.463369 
L 90.229421 232.647134 
L 93.50876 230.625718 
L 96.788099 232.922782 
L 100.067438 231.728308 
L 103.346777 232.279604 
L 106.626116 232.463369 
L 109.905455 232.739017 
L 113.184793 232.463369 
L 116.464132 232.647134 
L 119.743471 233.290312 
L 123.02281 231.912074 
L 126.302149 230.258187 
L 129.581488 232.922782 
L 132.860826 231.544543 
L 136.140165 231.728308 
L 139.419504 232.922782 
L 142.698843 230.441952 
L 145.978182 230.993248 
L 149.257521 229.98254 
L 152.53686 230.533835 
L 155.816198 233.382195 
L 159.095537 231.08513 
L 162.374876 230.533835 
L 165.654215 230.533835 
L 168.933554 229.615009 
L 172.212893 230.809483 
L 175.492231 228.971831 
L 178.77157 229.339361 
L 182.050909 227.593593 
L 185.330248 229.706892 
L 188.609587 229.339361 
L 191.888926 230.35007 
L 195.168264 231.360778 
L 198.447603 227.409827 
L 201.726942 228.053005 
L 205.006281 225.296528 
L 208.28562 230.441952 
L 211.564959 228.420536 
L 214.844298 228.053005 
L 218.123636 227.685475 
L 221.402975 225.664059 
L 224.682314 229.615009 
L 227.961653 227.685475 
L 231.240992 228.236771 
L 234.520331 226.582884 
L 237.799669 224.745233 
L 241.079008 228.144888 
L 244.358347 224.928998 
L 247.637686 223.91829 
L 250.917025 225.480293 
L 254.196364 223.275112 
L 257.475702 223.642642 
L 260.755041 225.204646 
L 264.03438 223.734525 
L 267.313719 223.550759 
L 270.593058 222.815699 
L 273.872397 220.7024 
L 277.151736 221.621225 
L 280.431074 221.621225 
L 283.710413 225.204646 
L 286.989752 218.22157 
L 290.269091 220.610517 
L 293.54843 214.730032 
L 296.827769 212.432968 
L 300.107107 215.832623 
L 303.386446 215.740741 
L 306.665785 218.037805 
L 309.945124 214.913798 
L 313.224463 219.324161 
L 316.503802 208.849548 
L 319.78314 215.097563 
L 323.062479 208.20637 
L 326.341818 206.001188 
L 329.621157 209.492726 
L 332.900496 209.584608 
L 336.179835 210.962847 
L 339.459174 206.093071 
L 342.738512 201.498942 
L 346.017851 207.471309 
L 349.29719 199.109995 
L 352.576529 204.439184 
L 355.855868 201.77459 
L 359.135207 198.374935 
L 362.414545 193.321393 
L 365.693884 196.07787 
L 368.973223 180.36595 
L 372.252562 191.851272 
L 375.531901 181.927954 
L 378.81124 177.517591 
L 382.090579 147.104459 
L 385.369917 142.326565 
L 388.649256 144.164217 
L 391.928595 121.009808 
L 395.207934 124.960759 
L 398.487273 53.568 
" style="fill:none;stroke:#ff7f0e;stroke-linecap:square;stroke-width:1.5;"/>
   </g>
   <g id="patch_3">
    <path d="M 57.6 307.584 
L 57.6 41.472 
" style="fill:none;stroke:#000000;stroke-linecap:square;stroke-linejoin:miter;stroke-width:0.8;"/>
   </g>
   <g id="patch_4">
    <path d="M 414.72 307.584 
L 414.72 41.472 
" style="fill:none;stroke:#000000;stroke-linecap:square;stroke-linejoin:miter;stroke-width:0.8;"/>
   </g>
   <g id="patch_5">
    <path d="M 57.6 307.584 
L 414.72 307.584 
" style="fill:none;stroke:#000000;stroke-linecap:square;stroke-linejoin:miter;stroke-width:0.8;"/>
   </g>
   <g id="patch_6">
    <path d="M 57.6 41.472 
L 414.72 41.472 
" style="fill:none;stroke:#000000;stroke-linecap:square;stroke-linejoin:miter;stroke-width:0.8;"/>
   </g>
   <g id="text_15">
    <text style="font-family:DejaVu Sans;font-size:12px;font-style:normal;font-weight:normal;text-anchor:middle;" transform="rotate(-0, 236.16, 35.472)" x="236.16" y="35.472">Coin Flips for arctan(x)</text>
   </g>
   <g id="legend_1">
    <g id="patch_7">
     <path d="M 64.6 78.82825 
L 284.773438 78.82825 
Q 286.773438 78.82825 286.773438 76.82825 
L 286.773438 48.472 
Q 286.773438 46.472 284.773438 46.472 
L 64.6 46.472 
Q 62.6 46.472 62.6 48.472 
L 62.6 76.82825 
Q 62.6 78.82825 64.6 78.82825 
z
" style="fill:#ffffff;opacity:0.8;stroke:#cccccc;stroke-linejoin:miter;"/>
    </g>
    <g id="line2d_15">
     <path d="M 66.6 54.570437 
L 86.6 54.570437 
" style="fill:none;stroke:#1f77b4;stroke-linecap:square;stroke-width:1.5;"/>
    </g>
    <g id="line2d_16"/>
    <g id="text_16">
     <text style="font-family:DejaVu Sans;font-size:10px;font-style:normal;font-weight:normal;text-anchor:start;" transform="rotate(-0, 94.6, 58.070437)" x="94.6" y="58.070437">Coin Flip Lower Bound</text>
    </g>
    <g id="line2d_17">
     <path d="M 66.6 69.248562 
L 86.6 69.248562 
" style="fill:none;stroke:#ff7f0e;stroke-linecap:square;stroke-width:1.5;"/>
    </g>
    <g id="line2d_18"/>
    <g id="text_17">
     <text style="font-family:DejaVu Sans;font-size:10px;font-style:normal;font-weight:normal;text-anchor:start;" transform="rotate(-0, 94.6, 72.748562)" x="94.6" y="72.748562">Avg. Coins Flipped arctan(x) (Flajolet)</text>
    </g>
   </g>
  </g>
 </g>
 <defs>
  <clipPath id="pb16941ba27">
   <rect height="266.112" width="357.12" x="57.6" y="41.472"/>
  </clipPath>
 </defs>
</svg>

<svg height="460.8" viewBox="0 0 460.8 345.6" width="614.4" xmlns="http://www.w3.org/2000/svg" xmlns:xlink="http://www.w3.org/1999/xlink"><defs><style>*{stroke-linecap:butt;stroke-linejoin:round}</style></defs><g id="figure_1"><path d="M0 345.6h460.8V0H0z" fill="#fff" id="patch_1"/><g id="axes_1"><path d="M57.6 307.584h357.12V41.472H57.6z" fill="#fff" id="patch_2"/><g id="matplotlib.axis_1"><g id="xtick_1"><g id="line2d_1"><defs><path d="M0 0v3.5" id="m8bec93085d" stroke="#000" stroke-width=".8"/></defs><use x="73.8" xlink:href="#m8bec93085d" y="307.584" stroke="#000" stroke-width=".8"/></g><text x="73.8" y="322.182" font-family="DejaVu Sans" font-size="10" font-weight="400" text-anchor="middle" id="text_1">0.0</text></g><g id="xtick_2"><use x="138.744" xlink:href="#m8bec93085d" y="307.584" stroke="#000" stroke-width=".8" id="line2d_2"/><text x="138.744" y="322.182" font-family="DejaVu Sans" font-size="10" font-weight="400" text-anchor="middle" id="text_2">0.2</text></g><g id="xtick_3"><use x="203.688" xlink:href="#m8bec93085d" y="307.584" stroke="#000" stroke-width=".8" id="line2d_3"/><text x="203.688" y="322.182" font-family="DejaVu Sans" font-size="10" font-weight="400" text-anchor="middle" id="text_3">0.4</text></g><g id="xtick_4"><use x="268.632" xlink:href="#m8bec93085d" y="307.584" stroke="#000" stroke-width=".8" id="line2d_4"/><text x="268.632" y="322.182" font-family="DejaVu Sans" font-size="10" font-weight="400" text-anchor="middle" id="text_4">0.6</text></g><g id="xtick_5"><use x="333.576" xlink:href="#m8bec93085d" y="307.584" stroke="#000" stroke-width=".8" id="line2d_5"/><text x="333.576" y="322.182" font-family="DejaVu Sans" font-size="10" font-weight="400" text-anchor="middle" id="text_5">0.8</text></g><g id="xtick_6"><use x="398.52" xlink:href="#m8bec93085d" y="307.584" stroke="#000" stroke-width=".8" id="line2d_6"/><text x="398.52" y="322.182" font-family="DejaVu Sans" font-size="10" font-weight="400" text-anchor="middle" id="text_6">1.0</text></g><text x="236.16" y="335.861" font-family="DejaVu Sans" font-size="10" font-weight="400" text-anchor="middle" id="text_7">Input Coin&apos;s Heads Probability (λ)</text></g><g id="matplotlib.axis_2"><g id="ytick_1"><g id="line2d_7"><defs><path d="M0 0h-3.5" id="ma7a14e08a4" stroke="#000" stroke-width=".8"/></defs><use x="57.6" xlink:href="#ma7a14e08a4" y="295.495" stroke="#000" stroke-width=".8"/></g><text x="50.6" y="299.294" font-family="DejaVu Sans" font-size="10" font-weight="400" text-anchor="end" id="text_8">0</text></g><g id="ytick_2"><use x="57.6" xlink:href="#ma7a14e08a4" y="249.554" stroke="#000" stroke-width=".8" id="line2d_8"/><text x="50.6" y="253.353" font-family="DejaVu Sans" font-size="10" font-weight="400" text-anchor="end" id="text_9">1</text></g><g id="ytick_3"><use x="57.6" xlink:href="#ma7a14e08a4" y="203.612" stroke="#000" stroke-width=".8" id="line2d_9"/><text x="50.6" y="207.411" font-family="DejaVu Sans" font-size="10" font-weight="400" text-anchor="end" id="text_10">2</text></g><g id="ytick_4"><use x="57.6" xlink:href="#ma7a14e08a4" y="157.671" stroke="#000" stroke-width=".8" id="line2d_10"/><text x="50.6" y="161.47" font-family="DejaVu Sans" font-size="10" font-weight="400" text-anchor="end" id="text_11">3</text></g><g id="ytick_5"><use x="57.6" xlink:href="#ma7a14e08a4" y="111.73" stroke="#000" stroke-width=".8" id="line2d_11"/><text x="50.6" y="115.529" font-family="DejaVu Sans" font-size="10" font-weight="400" text-anchor="end" id="text_12">4</text></g><g id="ytick_6"><use x="57.6" xlink:href="#ma7a14e08a4" y="65.788" stroke="#000" stroke-width=".8" id="line2d_12"/><text x="50.6" y="69.588" font-family="DejaVu Sans" font-size="10" font-weight="400" text-anchor="end" id="text_13">5</text></g><text transform="rotate(-90 38.158 174.528)" x="38.158" y="174.528" font-family="DejaVu Sans" font-size="10" font-weight="400" text-anchor="middle" id="text_14">Coin Flips Needed</text></g><path clip-path="url(#pb16941ba27)" d="M73.833 249.554l3.28.008 3.278.023 3.28.04 3.28.055 3.278.07 3.28.088 3.28.102 3.278.119 3.28.134 3.28.15 3.278.165 3.28.18 3.28.196 3.278.21 3.28.226 3.28.24 3.278.254 3.28.268 3.28.283 3.279.296 3.279.31 3.28.321 3.279.335 3.279.348 3.28.36 3.279.37 3.279.383 3.28.394 3.279.404 3.279.415 3.28.424 3.279.434 3.279.444 3.28.452 3.279.46 3.279.47 3.28.476 3.279.484 3.279.491 3.28.498 3.279.504 3.279.51 3.28.517 3.279.52 3.279.527 3.28.532 3.279.535 3.279.54 3.28.544 3.279.547 3.279.551 3.28.554 3.279.557 3.279.56 3.28.562 3.279.564 3.279.567 3.28.568 3.279.57 3.28.572 3.278.574 3.28.574 3.28.576 3.278.578 3.28.578 3.28.58 3.278.58 3.28.581 3.28.583 3.278.583 3.28.584 3.28.586 3.278.586 3.28.587 3.28.588 3.278.59 3.28.59 3.28.593 3.278.593 3.28.596 3.28.597 3.279.6 3.279.6 3.28.605 3.279.606 3.279.61 3.28.612 3.279.617 3.279.62 3.28.624 3.279.629 3.279.634 3.28.64 3.279.644 3.279.652 3.28.659 3.279.666 3.279.675 3.28.683" fill="none" stroke="#1f77b4" stroke-linecap="square" stroke-width="1.5" id="line2d_13"/><path clip-path="url(#pb16941ba27)" d="M73.833 232.371l3.28 1.562 3.278.552 3.28-1.838 3.28-.184 3.278.184 3.28-2.021 3.28 2.297 3.278-1.195 3.28.552 3.28.183 3.278.276 3.28-.276 3.28.184 3.278.643 3.28-1.378 3.28-1.654 3.278 2.665 3.28-1.378 3.28.183 3.279 1.195 3.279-2.481 3.28.551 3.279-1.01 3.279.55 3.28 2.85 3.279-2.298 3.279-.551h3.28l3.279-.919 3.279 1.194 3.28-1.837 3.279.367 3.279-1.745 3.28 2.113 3.279-.368 3.279 1.011 3.28 1.01 3.279-3.95 3.279.643 3.28-2.756 3.279 5.145 3.279-2.021 3.28-.368 3.279-.368 3.279-2.02 3.28 3.95 3.279-1.93 3.279.552 3.28-1.654 3.279-1.838 3.279 3.4 3.28-3.216 3.279-1.01 3.279 1.561 3.28-2.205 3.279.368 3.279 1.562 3.28-1.47 3.279-.184 3.28-.735 3.278-2.114 3.28.92h3.28l3.278 3.583 3.28-6.983 3.28 2.389 3.278-5.881 3.28-2.297 3.28 3.4 3.278-.092 3.28 2.297 3.28-3.124 3.278 4.41 3.28-10.474 3.28 6.248 3.278-6.892 3.28-2.205 3.28 3.492 3.278.092 3.28 1.378 3.28-4.87 3.279-4.594 3.279 5.972 3.28-8.361 3.279 5.33 3.279-2.665 3.28-3.4 3.279-5.054 3.279 2.757 3.28-15.712 3.279 11.485 3.279-9.923 3.28-4.41 3.279-30.414 3.279-4.777 3.28 1.837 3.279-23.154 3.279 3.95 3.28-71.392" fill="none" stroke="#ff7f0e" stroke-linecap="square" stroke-width="1.5" id="line2d_14"/><path d="M57.6 307.584V41.472" fill="none" stroke="#000" stroke-linecap="square" stroke-width=".8" id="patch_3"/><path d="M414.72 307.584V41.472" fill="none" stroke="#000" stroke-linecap="square" stroke-width=".8" id="patch_4"/><path d="M57.6 307.584h357.12" fill="none" stroke="#000" stroke-linecap="square" stroke-width=".8" id="patch_5"/><path d="M57.6 41.472h357.12" fill="none" stroke="#000" stroke-linecap="square" stroke-width=".8" id="patch_6"/><text x="236.16" y="35.472" font-family="DejaVu Sans" font-size="12" font-weight="400" text-anchor="middle" id="text_15">Coin Flips for arctan(x)</text><g id="legend_1"><path d="M64.6 78.828h220.173q2 0 2-2V48.472q0-2-2-2H64.6q-2 0-2 2v28.356q0 2 2 2z" fill="#fff" opacity=".8" stroke="#ccc" id="patch_7"/><path d="M66.6 54.57h20" fill="none" stroke="#1f77b4" stroke-linecap="square" stroke-width="1.5" id="line2d_15"/><text x="94.6" y="58.07" font-family="DejaVu Sans" font-size="10" font-weight="400" id="text_16">Coin Flip Lower Bound</text><path d="M66.6 69.249h20" fill="none" stroke="#ff7f0e" stroke-linecap="square" stroke-width="1.5" id="line2d_17"/><text x="94.6" y="72.749" font-family="DejaVu Sans" font-size="10" font-weight="400" id="text_17">Avg. Coins Flipped arctan(x) (Flajolet)</text></g></g></g><defs><clipPath id="pb16941ba27"><path d="M57.6 41.472h357.12v266.112H57.6z"/></clipPath></defs></svg>
